images/logo/fenix618.svg

<svg clip-rule="evenodd" fill-rule="evenodd" stroke-linejoin="round" stroke-miterlimit="2" viewBox="0 0 185 185" xmlns="http://www.w3.org/2000/svg"><g transform="translate(-2868.09 -1705.02)"><path d="m168.086-215.483h183.299v183.299h-183.299z" fill="none" transform="matrix(1.00677 0 0 1.00655 2698.86 1921.91)"/><path d="m2972.51 1768.41c-4.52-2.56-8.92-3.7-10.92-4.04-2.19-.37-9.31-1.34-17.36 2.19-16.11 7.06-23.86 26.1-21.96 42.99 2.45 21.81 20.45 41.2 42.35 44.55 30.66 4.7 47.58-11.59 51.04-14.73 24.55-22.27 27.5-54.74 17.19-78.24-7.45-16.97-26.83-35.66-49.7-41.03-15.61-3.66-30.33-3.55-45.67 1-39.36 11.68-64.05 59.5-51.47 98.31 3.31 10.2 8.73 19.6 15.71 27.62 7.97 9.13 17.98 16.46 29.23 21.09 17.41 7.18 41.66 7.98 41.66 7.98s-24.54-3.7-39.24-12.2c-12.17-7.03-23.84-17.15-30.11-30.16-12.03-24.92-7.66-54.36 10.61-74.8 12.9-14.44 34.62-20.55 53.52-16.86 22.5 4.4 43.5 27.5 38.08 51.86-1.3 5.85-5.74 11.7-9.53 15.05-8.77 7.73-22.99 8.36-32.58 1.42-8.98-6.5-14.06-19.98-8.1-30.11 3.04-5.17 7.36-8.48 11.58-10.18 1.46-.59 3.04-1.21 5.67-1.71z" fill="#ec1f76"/></g></svg>

<?xml version="1.0" encoding="UTF-8" standalone="no"?>
<!DOCTYPE svg PUBLIC "-//W3C//DTD SVG 1.1//EN" "http://www.w3.org/Graphics/SVG/1.1/DTD/svg11.dtd">
<svg width="100%" height="100%" viewBox="0 0 185 185" version="1.1" xmlns="http://www.w3.org/2000/svg" xmlns:xlink="http://www.w3.org/1999/xlink" xml:space="preserve" xmlns:serif="http://www.serif.com/" style="fill-rule:evenodd;clip-rule:evenodd;stroke-linejoin:round;stroke-miterlimit:2;">
    <g id="icon-正方形-export" serif:id="icon 正方形 export" transform="matrix(1,0,0,1,-2868.09,-1705.02)">
        <g transform="matrix(1.00677,0,0,1.00655,2698.86,1921.91)">
            <rect x="168.086" y="-215.483" width="183.299" height="183.299" style="fill:rgb(236,31,118);fill-opacity:0;"/>
        </g>
        <path d="M2972.53,1768.86C2967.61,1765.38 2963.64,1764.65 2961.64,1764.31C2959.45,1763.94 2952.28,1763.03 2944.23,1766.56C2928.12,1773.62 2920.37,1792.66 2922.27,1809.55C2924.72,1831.36 2942.72,1850.75 2964.62,1854.1C2995.28,1858.8 3012.2,1842.51 3015.66,1839.37C3040.21,1817.1 3043.16,1784.63 3032.85,1761.13C3025.4,1744.16 3006.02,1725.47 2983.15,1720.1C2967.54,1716.44 2952.82,1716.55 2937.48,1721.1C2898.12,1732.78 2873.43,1780.6 2886.01,1819.41C2889.32,1829.61 2894.74,1839.01 2901.72,1847.03C2909.69,1856.16 2919.7,1863.49 2930.95,1868.12C2948.36,1875.3 2972.61,1876.1 2972.61,1876.1C2972.61,1876.1 2948.07,1872.4 2933.37,1863.9C2921.2,1856.87 2909.53,1846.75 2903.26,1833.74C2891.23,1808.82 2895.6,1779.38 2913.87,1758.94C2926.77,1744.5 2948.49,1738.39 2967.39,1742.08C2989.89,1746.48 3010.89,1769.58 3005.47,1793.94C3004.17,1799.79 2999.73,1805.64 2995.94,1808.99C2987.17,1816.72 2972.95,1817.35 2963.36,1810.41C2954.38,1803.91 2949.3,1790.43 2955.26,1780.3C2958.3,1775.13 2962.62,1771.82 2966.84,1770.12C2968.3,1769.53 2969.91,1769.14 2972.53,1768.86Z" style="fill:rgb(236,31,118);"/>
    </g>
</svg>
